Newaita-dark/actions/16/align-vertical-bottom.svg

<svg height="16" viewBox="0 0 16 16" width="16" xmlns="http://www.w3.org/2000/svg"><g fill="#e0e0e0"><path d="m14.554688 13.6875c0-.183594-.148438-.332031-.332032-.332031h-12.570312c-.179688 0-.328125.148437-.328125.332031 0 .179688.148437.328125.328125.328125h12.570312c.183594 0 .332032-.148437.332032-.328125zm0 0"/><path d="m13.5625 11.371094c0 .734375-.589844 1.324218-1.324219 1.324218h-2.644531c-.734375 0-1.324219-.589843-1.324219-1.324218v-7.9375c0-.734375.589844-1.324219 1.324219-1.324219h2.644531c.734375 0 1.324219.589844 1.324219 1.324219zm-1.324219-.332032v-7.277343c0-.179688-.148437-.328125-.332031-.328125h-1.984375c-.183594 0-.328125.148437-.328125.328125v7.277343c0 .183594.144531.332032.328125.332032h1.984375c.183594 0 .332031-.148438.332031-.332032zm0 0"/><path d="m6.945312 11.371094c0 .734375-.589843 1.324218-1.324218 1.324218h-1.984375c-.730469 0-1.320313-.589843-1.320313-1.324218v-3.96875c0-.734375.589844-1.324219 1.320313-1.324219h1.984375c.734375 0 1.324218.589844 1.324218 1.324219zm-1.324218-.332032v-3.304687c0-.183594-.144532-.332031-.328125-.332031h-1.324219c-.183594 0-.332031.148437-.332031.332031v3.304687c0 .183594.148437.332032.332031.332032h1.324219c.183593 0 .328125-.148438.328125-.332032zm0 0"/></g></svg>

<?xml version="1.0" encoding="UTF-8"?>
<svg xmlns="http://www.w3.org/2000/svg" xmlns:xlink="http://www.w3.org/1999/xlink" width="16px" height="16px" viewBox="0 0 16 16" version="1.1">
<g id="surface1">
<path style=" stroke:none;fill-rule:nonzero;fill:rgb(87.843138%,87.843138%,87.843138%);fill-opacity:1;" d="M 14.554688 13.6875 C 14.554688 13.503906 14.40625 13.355469 14.222656 13.355469 L 1.652344 13.355469 C 1.472656 13.355469 1.324219 13.503906 1.324219 13.6875 C 1.324219 13.867188 1.472656 14.015625 1.652344 14.015625 L 14.222656 14.015625 C 14.40625 14.015625 14.554688 13.867188 14.554688 13.6875 Z M 14.554688 13.6875 "/>
<path style=" stroke:none;fill-rule:nonzero;fill:rgb(87.843138%,87.843138%,87.843138%);fill-opacity:1;" d="M 13.5625 11.371094 C 13.5625 12.105469 12.972656 12.695312 12.238281 12.695312 L 9.59375 12.695312 C 8.859375 12.695312 8.269531 12.105469 8.269531 11.371094 L 8.269531 3.433594 C 8.269531 2.699219 8.859375 2.109375 9.59375 2.109375 L 12.238281 2.109375 C 12.972656 2.109375 13.5625 2.699219 13.5625 3.433594 Z M 12.238281 11.039062 L 12.238281 3.761719 C 12.238281 3.582031 12.089844 3.433594 11.90625 3.433594 L 9.921875 3.433594 C 9.738281 3.433594 9.59375 3.582031 9.59375 3.761719 L 9.59375 11.039062 C 9.59375 11.222656 9.738281 11.371094 9.921875 11.371094 L 11.90625 11.371094 C 12.089844 11.371094 12.238281 11.222656 12.238281 11.039062 Z M 12.238281 11.039062 "/>
<path style=" stroke:none;fill-rule:nonzero;fill:rgb(87.843138%,87.843138%,87.843138%);fill-opacity:1;" d="M 6.945312 11.371094 C 6.945312 12.105469 6.355469 12.695312 5.621094 12.695312 L 3.636719 12.695312 C 2.90625 12.695312 2.316406 12.105469 2.316406 11.371094 L 2.316406 7.402344 C 2.316406 6.667969 2.90625 6.078125 3.636719 6.078125 L 5.621094 6.078125 C 6.355469 6.078125 6.945312 6.667969 6.945312 7.402344 Z M 5.621094 11.039062 L 5.621094 7.734375 C 5.621094 7.550781 5.476562 7.402344 5.292969 7.402344 L 3.96875 7.402344 C 3.785156 7.402344 3.636719 7.550781 3.636719 7.734375 L 3.636719 11.039062 C 3.636719 11.222656 3.785156 11.371094 3.96875 11.371094 L 5.292969 11.371094 C 5.476562 11.371094 5.621094 11.222656 5.621094 11.039062 Z M 5.621094 11.039062 "/>
</g>
</svg>
